X: 4324
T: GENTLE FLOWERS. (Faust.)
%R: mazurka, waltz
B: James Kerr "Merry Melodies" v.4 p.34 #324
Z: 2016 John Chambers <jc:trillian.mit.edu>
M: 6/8
L: 1/8
K: C
!p!cd ecA |\
G3- G2E | G3- G2D | E3- E2z | zcc cBc |\
(d3 A2)z | z"_cresc."dd dcd | (e3 B2)z | zAB cde |\
[1 ^f3- f2e | d3- d2A | Bag ^fdB | G :|\
[2 g3 f2e | d3- d2G | c6- | c |]

%%sep 1 1 500
%%sep 1 1 500

